!!!COM: Habarurema, Michael (et al)
!!!CDT: b.1942
!!!OTL: National Anthem, Rwanda
!!!ENC: Davis, Matthew J.
!!Vocal Line Only
**kern
*clefG2
*k[b-]
*F:
*M4/4
==!|:1
8c
=2
8.f
16e
8.f
16g
8.a
16a
8g
8b
=3
4a
4g
4f
4r
=4
8.a
16a
8a
8a
8a
8a
8a
8cc
=5
4b
4a
4g
4r
=6
8.g
16g
8g
8a
8g
8f
8e
16g
16f
=7
4e
8d
16e
16d
4c
4r
=8
4f
4f
8f
8c
8d
8e
=9
4f
4f
4f
8a
8g
=10
4.f
8e
8d
8e
8g
8f
=11
4e
8d
16e
16d
4c
4r
=12
8a
16g
16a
[4f
2f]
=13
8g
16f
16g
[4e
2e]
=14
8f
16e
16f
[4d
4.d]
8e
=15
8.g
16f
9d
9e
4c
8r
8c
=16
8.f
16e
8f
8g
4a
8f
8a
=17
8.g
16f
8d
8e
4f
8r
8f
=18
8e
8d
8c
8A
4c
4a
=19
4g
8d
8e
4.f
!Repeat from beginning
==:|!
*-
